www/assets/icons/attachment.svg

<svg xmlns="http://www.w3.org/2000/svg" width="24" height="24" viewBox="0 0 24 24" fill='currentColor'><path d="M2 12c0-3.04 2.46-5.5 5.5-5.5H18c2.21 0 4 1.79 4 4s-1.79 4-4 4H9.5a2.5 2.5 0 0 1 0-5H17v2H9.41c-.55 0-.55 1 0 1H18c1.1 0 2-.9 2-2s-.9-2-2-2H7.5C5.57 8.5 4 10.07 4 12s1.57 3.5 3.5 3.5H17v2H7.5C4.46 17.5 2 15.04 2 12"/></svg>

<svg width="24" height="24" viewBox="0 0 24 24" xmlns="http://www.w3.org/2000/svg" fill='currentColor'><path d="M2 12C2 8.96 4.46 6.5 7.5 6.5H18C20.21 6.5 22 8.29 22 10.5C22 12.71 20.21 14.5 18 14.5H9.5C8.12 14.5 7 13.38 7 12C7 10.62 8.12 9.5 9.5 9.5H17V11.5H9.41C8.86 11.5 8.86 12.5 9.41 12.5H18C19.1 12.5 20 11.6 20 10.5C20 9.4 19.1 8.5 18 8.5H7.5C5.57 8.5 4 10.07 4 12C4 13.93 5.57 15.5 7.5 15.5H17V17.5H7.5C4.46 17.5 2 15.04 2 12Z"/></svg>
